X:136
T:Avskedsvals
C:Samuel Andersson
R:Vals
Z:Erik Ronström
Z:upplagd med tillstånd av kompositören
M:3/4
L:1/8
K:A
E2|:c3 B dc|A2- A>c B>G|A2 A2 G2|F6|F3 D FG|A2 AG Ac|B2 B>A (3Bcd|e3 f ed|
c3 B dc|A2- A>c B>G|A2 A2 G2|F6|F3 D FG|A2 AG Ac|B2 BA GB|1 A4 E2:|2 A3 A ce|
|:a2 ag ab|g2 ge ga|f2 df ag|e4 ec|d3 e f2|fa fe dc|B3 d fg|e3 e ce|
a2 ag ab|g2 ge ga|f2 df ag|e4 ed|c4 ec|B2 BA GA|B2 d2 c2|1 A3 A ce:|2 A4|]
(:musicend:)

(:title Alunelul azesat:)
Spelad av [[Grupper/Orientexpressen]] Dans från södra Rumänien. Melodin är från början för "caval" - en flöjt stämd i just den skala som låten bygger på: a,h,c,diss, e fiss, g, a. Öppnas som pdf eller med Finale!
(:music:)
